src/assets/icons/icons-origin/EyeOffOutline.svg

<svg width="24" height="24" viewBox="0 0 24 24" xmlns="http://www.w3.org/2000/svg">
  <path d="M4.71 3.29C4.61676 3.19676 4.50607 3.1228 4.38425 3.07234C4.26243 3.02188 4.13186 2.99591 4 2.99591C3.86814 2.99591 3.73758 3.02188 3.61575 3.07234C3.49393 3.1228 3.38324 3.19676 3.29 3.29C3.1017 3.47831 2.99591 3.7337 2.99591 4C2.99591 4.2663 3.1017 4.5217 3.29 4.71L8.92 10.34C8.56381 11.0026 8.43059 11.7624 8.54009 12.5067C8.64959 13.2509 8.99599 13.9401 9.52794 14.4721C10.0599 15.004 10.7491 15.3504 11.4934 15.4599C12.2376 15.5694 12.9974 15.4362 13.66 15.08L19.29 20.71C19.383 20.8037 19.4936 20.8781 19.6154 20.9289C19.7373 20.9797 19.868 21.0058 20 21.0058C20.132 21.0058 20.2627 20.9797 20.3846 20.9289C20.5064 20.8781 20.617 20.8037 20.71 20.71C20.8037 20.617 20.8781 20.5064 20.9289 20.3846C20.9797 20.2627 21.0058 20.132 21.0058 20C21.0058 19.868 20.9797 19.7373 20.9289 19.6154C20.8781 19.4936 20.8037 19.383 20.71 19.29L4.71 3.29ZM12 13.5C11.6022 13.5 11.2206 13.342 10.9393 13.0607C10.658 12.7794 10.5 12.3978 10.5 12V11.93L12.06 13.49L12 13.5Z" fill="currentColor" />
  <path d="M12.22 17C7.92001 17.1 5.10001 13.41 4.22001 12C4.84648 11.0007 5.59937 10.0865 6.46001 9.27999L5.00001 7.87C3.87133 8.93347 2.90442 10.1564 2.13001 11.5C2.04224 11.652 1.99603 11.8245 1.99603 12C1.99603 12.1755 2.04224 12.348 2.13001 12.5C2.76001 13.59 6.13001 19 12.02 19H12.27C13.3776 18.9671 14.4708 18.7404 15.5 18.33L13.92 16.75C13.3644 16.8962 12.7942 16.98 12.22 17Z" fill="currentColor" />
  <path d="M21.87 11.5C21.23 10.39 17.7 4.81999 11.73 4.99999C10.6225 5.03285 9.52924 5.25961 8.5 5.66999L10.08 7.24999C10.6356 7.10382 11.2058 7.01997 11.78 6.99999C16.07 6.88999 18.89 10.59 19.78 12C19.1381 13.0023 18.3682 13.9167 17.49 14.72L19 16.13C20.1428 15.0693 21.1234 13.8462 21.91 12.5C21.9918 12.3445 22.0311 12.1702 22.0241 11.9946C22.0171 11.8191 21.9639 11.6485 21.87 11.5Z" fill="currentColor" />
</svg>

<svg width="24" height="24" viewBox="0 0 24 24" xmlns="http://www.w3.org/2000/svg">
  <path d="M4.71 3.29a1.004 1.004 0 1 0-1.42 1.42l5.63 5.63a3.5 3.5 0 0 0 4.74 4.74l5.63 5.63a1.002 1.002 0 0 0 1.639-.325 1 1 0 0 0-.219-1.095l-16-16ZM12 13.5a1.5 1.5 0 0 1-1.5-1.5v-.07l1.56 1.56-.06.01Z" fill="currentColor"/>
  <path d="M12.22 17c-4.3.1-7.12-3.59-8-5 .626-1 1.38-1.914 2.24-2.72L5 7.87a15.89 15.89 0 0 0-2.87 3.63 1 1 0 0 0 0 1c.63 1.09 4 6.5 9.89 6.5h.25a9.48 9.48 0 0 0 3.23-.67l-1.58-1.58a7.739 7.739 0 0 1-1.7.25ZM21.87 11.5c-.64-1.11-4.17-6.68-10.14-6.5a9.48 9.48 0 0 0-3.23.67l1.58 1.58a7.74 7.74 0 0 1 1.7-.25c4.29-.11 7.11 3.59 8 5a13.699 13.699 0 0 1-2.29 2.72L19 16.13a15.89 15.89 0 0 0 2.91-3.63 1 1 0 0 0-.04-1Z" fill="currentColor"/>
</svg>
